assets/images/item_8161.svg

<?xml version="1.0" standalone="no"?><!DOCTYPE svg PUBLIC "-//W3C//DTD SVG 1.1//EN" "http://www.w3.org/Graphics/SVG/1.1/DTD/svg11.dtd"><svg xmlns="http://www.w3.org/2000/svg" version="1.1" width="903px" height="404px" viewBox="0 -17 903 404" style="top:-17px"><desc>Unfix Your Thinking</desc><defs/><g id="Polygon9397"><path d="m23.3 259.8l11.4-4.4v-75.7H23.1L6.8 199.5H1.2l1.5-26.9h85.7l1.5 26.9h-5.6l-16.2-19.8H56.4v77.5l11.4 2.1v6.3H23.3v-5.8zm69.7 0l9.5-3.6v-70.6l-9.3-4.3v-4.1l27.9-6.1v40.7s11.95-10.92 12-10.9c2.4-.8 5.2-1.3 8-1.3c9.9 0 20.1 6 20.1 21.9v36.2l9.5 1.6v6.3h-36v-6.4l7.9-3v-30.5c0-8.5-3.8-12-8.7-12c-4.1 0-8.8 2.4-12.8 6.5c.05.02 0 37.5 0 37.5l8 1.3v6.6H93v-5.8zm88-80.4c0-7.3 5.1-12.1 12.4-12.1c7.4 0 12.4 4.8 12.4 12.1c0 7.3-5 12.2-12.4 12.2c-7.3 0-12.4-4.9-12.4-12.2zm-5.3 80.4l9.6-3.6v-42.1l-9.3-4.3v-4.1l27.9-6.1v58.1l9.5 1.6v6.3h-37.7v-5.8zm42.7 0l9.5-3.6v-42.5l-9.3-4.4v-4.1l25.7-5.6v14.2l14.1-12.9c2.5-.8 5.2-1.3 8.1-1.3c9.9 0 20.1 6 20.1 21.9c-.04-.04 0 36.2 0 36.2l9.5 1.6v6.3H260v-6.4l8-3s-.04-30.52 0-30.5c0-8.5-3.9-12-8.7-12c-4.1 0-8.8 2.4-12.8 6.5v37.5l7.9 1.3v6.6h-36v-5.8zm80.8 0l9.6-3.6v-70.6l-9.3-4.3v-4.1l27.9-6.1v86.6l9.5 1.6v6.3h-37.7v-5.8zm53.1 5.8L327.5 232l24.3-22.8l-10.7-2.5v-5.8H373v6.6l-9.4 1.6l-17.4 16.5l26.8 34.2v5.8h-20.7zm30.4-86.2c0-7.3 5-12.1 12.4-12.1c7.3 0 12.4 4.8 12.4 12.1c0 7.3-5.1 12.2-12.4 12.2c-7.4 0-12.4-4.9-12.4-12.2zm-5.4 80.4l9.6-3.6v-42.1l-9.3-4.3v-4.1l27.9-6.1v58.1l9.5 1.6v6.3h-37.7v-5.8zm42.7 0l9.5-3.6v-42.5l-9.3-4.4v-4.1l25.7-5.6v14.2l14.1-12.9c2.5-.8 5.2-1.3 8.1-1.3c9.9 0 20.1 6 20.1 21.9c-.02-.04 0 36.2 0 36.2l9.5 1.6v6.3h-36.1v-6.4l8-3s-.02-30.52 0-30.5c0-8.5-3.9-12-8.7-12c-4.1 0-8.8 2.4-12.8 6.5c.03.02 0 37.5 0 37.5l8 1.3v6.6H420v-5.8zm136.9-50.4c4.1 4.7 6.3 10.6 6.3 15.8c0 13-13.6 21.1-28.1 21.1c-4.3 0-8.4-.8-12-1.9c-2.9 1.1-4.3 3.5-4.3 6c0 3.1 2.4 6 6.8 6h26.9c13.1 0 19.9 8.1 19.9 17.5c0 16.3-20.1 23.7-39.7 23.7c-18.7 0-30.6-6.8-30.6-15.4c0-1.5.3-3 1-4.4l14.3-9c-7.8-2.2-11.5-8-11.5-13.7c0-5.9 4.1-11.7 12.2-13.2c-6.7-3.9-11.2-10.4-11.2-18.9c0-13.6 11-23.4 26.7-23.4c3.4 0 6.5.5 9.4 1.3c-.01-.02 29.4 0 29.4 0v9.7s-15.52-1.17-15.5-1.2zM545 223.9c0-8.9-2.9-17.6-10.4-17.6c-7.4 0-9.5 8.1-9.5 15.4c0 8.9 3.1 17.4 10.7 17.4c7.3 0 9.2-7.8 9.2-15.2zm-26.6 56c0 4.9 4.3 10 16.5 10c11.2 0 20.7-4.2 20.7-11.3c0-4.3-3.6-7.4-10.6-7.4h-22.3c-2.5 2.3-4.3 5.6-4.3 8.7zm70.5-36c6.4 0 11.1 4.7 11.1 11.2c0 6.4-4.7 11.1-11.1 11.1c-6.2 0-10.9-4.7-10.9-11.1c0-6.5 4.7-11.2 10.9-11.2z" stroke="none" fill="#000"/></g><g id="Polygon9396"><path d="m12.6 81c.05-.03 0-48.8 0-48.8L1.2 30.1v-6.3h44.6v5.8L34.3 34s.05 51.06 0 51.1c0 17.1 11.1 24.8 22.4 24.8c11.3 0 23.4-7.8 23.4-22.1V32.2l-11.4-2.1v-6.3h33.1v5.8L90.4 34v50.7c0 22.7-18.5 34.5-37.6 34.5c-19.9 0-40.2-12.6-40.2-38.2zm92.3 30l9.6-3.6V64.9l-9.3-4.4v-4.1l25.6-5.6V65s14.16-12.92 14.2-12.9c2.4-.8 5.2-1.3 8-1.3c9.9 0 20.1 6 20.1 21.9v36.2l9.6 1.6v6.3h-36.1v-6.4l7.9-3V76.9c0-8.5-3.8-12-8.7-12c-4.1 0-8.8 2.4-12.7 6.5c-.05.02 0 37.5 0 37.5l7.9 1.3v6.6h-36.1V111zm127.8 5.8V111l8.4-3.6v-47h-24v48.5l9.6 1.6v6.3H189V111l9.5-3.6V59.8h-12.7v-6l12.7-3.8s.02-5.73 0-5.7c0-17.8 14-25.7 29.5-25.7c8 0 16.2 2.1 23.2 6l-5.7 16.8s-7.42.01-7.4 0c-.3-10.9-5.7-15.9-10.9-15.9c-5.1 0-10.1 4.9-10.1 13.7c.02-.02 0 12.9 0 12.9h42.6v56.8l9.5 1.6v6.3h-36.5zm118.2-5.6v5.6H313v-6.1l8-1.3l-14-17.1l-12.9 15.7l9.7 3.2v5.6h-31.1v-6.1l9.4-1.6l19.8-23.2l-20-24.6l-9.6-3.6v-5.6H310v6.2l-7.9 1.2l13.7 16.9l12.3-15l-9.4-3.4v-5.9h30.9v6.1l-9.5 1.6L321 82.7l20.4 24.9l9.5 3.6zm52.8-.2l11.4-4.4V83l-29.8-48.7l-10.2-4.2v-6.3h45.6v6.8l-12.6 2l20.7 40.7l19.7-39l-12.6-4.2v-6.3h34.2v6.8l-10.2 2l-23.1 46.3v29.5l11.5 2.1v6.3h-44.6V111zm123.4-26.8c0 19.1-12.4 34.1-33.6 34.1c-21.3 0-32.7-15.3-32.7-33.6c0-19 12.3-33.9 33.6-33.9c21.2 0 32.7 14.9 32.7 33.4zM506 86.4c0-17.5-4.3-28.9-12.9-28.9c-7.5 0-11.2 9-11.2 25.1c0 17.5 4.3 29 12.9 29c7.5 0 11.2-9.1 11.2-25.2zm91.8 17.3l8.8 1.6v5.7l-25.2 7.3v-14.1s-14.1 12.85-14.1 12.9c-1.5.7-3.5 1.2-5.8 1.2c-8.3 0-19.9-5.8-19.9-22.6c.03.03 0-34.4 0-34.4l-9.5-3.1v-6.1h28.1s.03 39.41 0 39.4c0 8.1 4.1 11.7 8.8 11.7c3.6 0 7.5-2.1 10.2-5.7V61.3l-9.4-3.1v-6.1h28v51.6zm13.1 7.3l9.6-3.6V64.9l-9.3-4.4v-4.1l25.7-5.6v16.3l14.8-15.6c4.5 0 10.5 1 14 2.9l-4.8 18.5c-3.2-2.1-6.8-3.2-10.4-3.2c-4.2 0-8.2 1.4-11.4 3.7v35.5l9.5 1.6v6.3h-37.7V111z" stroke="none" fill="#000"/></g></svg>

<?xml version="1.0" standalone="no"?><!DOCTYPE svg PUBLIC "-//W3C//DTD SVG 1.1//EN" "http://www.w3.org/Graphics/SVG/1.1/DTD/svg11.dtd"><svg xmlns="http://www.w3.org/2000/svg" version="1.1" width="903px" height="404px" viewBox="0 -17 903 404" style="top:-17px">  <desc>Unfix Your Thinking</desc>  <defs/>  <g id="Polygon9397">    <path d="M 23.3 259.8 L 34.7 255.4 L 34.7 179.7 L 23.1 179.7 L 6.8 199.5 L 1.2 199.5 L 2.7 172.6 L 88.4 172.6 L 89.9 199.5 L 84.3 199.5 L 68.1 179.7 L 56.4 179.7 L 56.4 257.2 L 67.8 259.3 L 67.8 265.6 L 23.3 265.6 L 23.3 259.8 Z M 93 259.8 L 102.5 256.2 L 102.5 185.6 L 93.2 181.3 L 93.2 177.2 L 121.1 171.1 L 121.1 211.8 C 121.1 211.8 133.05 200.88 133.1 200.9 C 135.5 200.1 138.3 199.6 141.1 199.6 C 151 199.6 161.2 205.6 161.2 221.5 C 161.2 221.46 161.2 257.7 161.2 257.7 L 170.7 259.3 L 170.7 265.6 L 134.7 265.6 L 134.7 259.2 L 142.6 256.2 C 142.6 256.2 142.6 225.68 142.6 225.7 C 142.6 217.2 138.8 213.7 133.9 213.7 C 129.8 213.7 125.1 216.1 121.1 220.2 C 121.15 220.22 121.1 257.7 121.1 257.7 L 129.1 259 L 129.1 265.6 L 93 265.6 L 93 259.8 Z M 181 179.4 C 181 172.1 186.1 167.3 193.4 167.3 C 200.8 167.3 205.8 172.1 205.8 179.4 C 205.8 186.7 200.8 191.6 193.4 191.6 C 186.1 191.6 181 186.7 181 179.4 Z M 175.7 259.8 L 185.3 256.2 L 185.3 214.1 L 176 209.8 L 176 205.7 L 203.9 199.6 L 203.9 257.7 L 213.4 259.3 L 213.4 265.6 L 175.7 265.6 L 175.7 259.8 Z M 218.4 259.8 L 227.9 256.2 L 227.9 213.7 L 218.6 209.3 L 218.6 205.2 L 244.3 199.6 L 244.3 213.8 C 244.3 213.8 258.41 200.88 258.4 200.9 C 260.9 200.1 263.6 199.6 266.5 199.6 C 276.4 199.6 286.6 205.6 286.6 221.5 C 286.56 221.46 286.6 257.7 286.6 257.7 L 296.1 259.3 L 296.1 265.6 L 260 265.6 L 260 259.2 L 268 256.2 C 268 256.2 267.96 225.68 268 225.7 C 268 217.2 264.1 213.7 259.3 213.7 C 255.2 213.7 250.5 216.1 246.5 220.2 C 246.51 220.22 246.5 257.7 246.5 257.7 L 254.4 259 L 254.4 265.6 L 218.4 265.6 L 218.4 259.8 Z M 299.2 259.8 L 308.8 256.2 L 308.8 185.6 L 299.5 181.3 L 299.5 177.2 L 327.4 171.1 L 327.4 257.7 L 336.9 259.3 L 336.9 265.6 L 299.2 265.6 L 299.2 259.8 Z M 352.3 265.6 L 327.5 232 L 351.8 209.2 L 341.1 206.7 L 341.1 200.9 L 373 200.9 L 373 207.5 L 363.6 209.1 L 346.2 225.6 L 373 259.8 L 373 265.6 L 352.3 265.6 Z M 382.7 179.4 C 382.7 172.1 387.7 167.3 395.1 167.3 C 402.4 167.3 407.5 172.1 407.5 179.4 C 407.5 186.7 402.4 191.6 395.1 191.6 C 387.7 191.6 382.7 186.7 382.7 179.4 Z M 377.3 259.8 L 386.9 256.2 L 386.9 214.1 L 377.6 209.8 L 377.6 205.7 L 405.5 199.6 L 405.5 257.7 L 415 259.3 L 415 265.6 L 377.3 265.6 L 377.3 259.8 Z M 420 259.8 L 429.5 256.2 L 429.5 213.7 L 420.2 209.3 L 420.2 205.2 L 445.9 199.6 L 445.9 213.8 C 445.9 213.8 460.03 200.88 460 200.9 C 462.5 200.1 465.2 199.6 468.1 199.6 C 478 199.6 488.2 205.6 488.2 221.5 C 488.18 221.46 488.2 257.7 488.2 257.7 L 497.7 259.3 L 497.7 265.6 L 461.6 265.6 L 461.6 259.2 L 469.6 256.2 C 469.6 256.2 469.58 225.68 469.6 225.7 C 469.6 217.2 465.7 213.7 460.9 213.7 C 456.8 213.7 452.1 216.1 448.1 220.2 C 448.13 220.22 448.1 257.7 448.1 257.7 L 456.1 259 L 456.1 265.6 L 420 265.6 L 420 259.8 Z M 556.9 209.4 C 561 214.1 563.2 220 563.2 225.2 C 563.2 238.2 549.6 246.3 535.1 246.3 C 530.8 246.3 526.7 245.5 523.1 244.4 C 520.2 245.5 518.8 247.9 518.8 250.4 C 518.8 253.5 521.2 256.4 525.6 256.4 C 525.6 256.4 552.5 256.4 552.5 256.4 C 565.6 256.4 572.4 264.5 572.4 273.9 C 572.4 290.2 552.3 297.6 532.7 297.6 C 514 297.6 502.1 290.8 502.1 282.2 C 502.1 280.7 502.4 279.2 503.1 277.8 C 503.1 277.8 517.4 268.8 517.4 268.8 C 509.6 266.6 505.9 260.8 505.9 255.1 C 505.9 249.2 510 243.4 518.1 241.9 C 511.4 238 506.9 231.5 506.9 223 C 506.9 209.4 517.9 199.6 533.6 199.6 C 537 199.6 540.1 200.1 543 200.9 C 542.99 200.88 572.4 200.9 572.4 200.9 L 572.4 210.6 C 572.4 210.6 556.88 209.43 556.9 209.4 Z M 545 223.9 C 545 215 542.1 206.3 534.6 206.3 C 527.2 206.3 525.1 214.4 525.1 221.7 C 525.1 230.6 528.2 239.1 535.8 239.1 C 543.1 239.1 545 231.3 545 223.9 Z M 518.4 279.9 C 518.4 284.8 522.7 289.9 534.9 289.9 C 546.1 289.9 555.6 285.7 555.6 278.6 C 555.6 274.3 552 271.2 545 271.2 C 545 271.2 522.7 271.2 522.7 271.2 C 520.2 273.5 518.4 276.8 518.4 279.9 Z M 588.9 243.9 C 595.3 243.9 600 248.6 600 255.1 C 600 261.5 595.3 266.2 588.9 266.2 C 582.7 266.2 578 261.5 578 255.1 C 578 248.6 582.7 243.9 588.9 243.9 Z " stroke="none" fill="#000"/>  </g>  <g id="Polygon9396">    <path d="M 12.6 81 C 12.65 80.97 12.6 32.2 12.6 32.2 L 1.2 30.1 L 1.2 23.8 L 45.8 23.8 L 45.8 29.6 L 34.3 34 C 34.3 34 34.35 85.06 34.3 85.1 C 34.3 102.2 45.4 109.9 56.7 109.9 C 68 109.9 80.1 102.1 80.1 87.8 C 80.1 87.79 80.1 32.2 80.1 32.2 L 68.7 30.1 L 68.7 23.8 L 101.8 23.8 L 101.8 29.6 L 90.4 34 C 90.4 34 90.4 84.69 90.4 84.7 C 90.4 107.4 71.9 119.2 52.8 119.2 C 32.9 119.2 12.6 106.6 12.6 81 Z M 104.9 111 L 114.5 107.4 L 114.5 64.9 L 105.2 60.5 L 105.2 56.4 L 130.8 50.8 L 130.8 65 C 130.8 65 144.96 52.08 145 52.1 C 147.4 51.3 150.2 50.8 153 50.8 C 162.9 50.8 173.1 56.8 173.1 72.7 C 173.1 72.66 173.1 108.9 173.1 108.9 L 182.7 110.5 L 182.7 116.8 L 146.6 116.8 L 146.6 110.4 L 154.5 107.4 C 154.5 107.4 154.5 76.88 154.5 76.9 C 154.5 68.4 150.7 64.9 145.8 64.9 C 141.7 64.9 137 67.3 133.1 71.4 C 133.05 71.42 133.1 108.9 133.1 108.9 L 141 110.2 L 141 116.8 L 104.9 116.8 L 104.9 111 Z M 232.7 116.8 L 232.7 111 L 241.1 107.4 L 241.1 60.4 L 217.1 60.4 L 217.1 108.9 L 226.7 110.5 L 226.7 116.8 L 189 116.8 L 189 111 L 198.5 107.4 L 198.5 59.8 L 185.8 59.8 L 185.8 53.8 L 198.5 50 C 198.5 50 198.52 44.27 198.5 44.3 C 198.5 26.5 212.5 18.6 228 18.6 C 236 18.6 244.2 20.7 251.2 24.6 C 251.22 24.55 245.5 41.4 245.5 41.4 C 245.5 41.4 238.08 41.41 238.1 41.4 C 237.8 30.5 232.4 25.5 227.2 25.5 C 222.1 25.5 217.1 30.4 217.1 39.2 C 217.12 39.18 217.1 52.1 217.1 52.1 L 259.7 52.1 L 259.7 108.9 L 269.2 110.5 L 269.2 116.8 L 232.7 116.8 Z M 350.9 111.2 L 350.9 116.8 L 313 116.8 L 313 110.7 L 321 109.4 L 307 92.3 L 294.1 108 L 303.8 111.2 L 303.8 116.8 L 272.7 116.8 L 272.7 110.7 L 282.1 109.1 L 301.9 85.9 L 281.9 61.3 L 272.3 57.7 L 272.3 52.1 L 310 52.1 L 310 58.3 L 302.1 59.5 L 315.8 76.4 L 328.1 61.4 L 318.7 58 L 318.7 52.1 L 349.6 52.1 L 349.6 58.2 L 340.1 59.8 L 321 82.7 L 341.4 107.6 L 350.9 111.2 Z M 403.7 111 L 415.1 106.6 L 415.1 83 L 385.3 34.3 L 375.1 30.1 L 375.1 23.8 L 420.7 23.8 L 420.7 30.6 L 408.1 32.6 L 428.8 73.3 L 448.5 34.3 L 435.9 30.1 L 435.9 23.8 L 470.1 23.8 L 470.1 30.6 L 459.9 32.6 L 436.8 78.9 L 436.8 108.4 L 448.3 110.5 L 448.3 116.8 L 403.7 116.8 L 403.7 111 Z M 527.1 84.2 C 527.1 103.3 514.7 118.3 493.5 118.3 C 472.2 118.3 460.8 103 460.8 84.7 C 460.8 65.7 473.1 50.8 494.4 50.8 C 515.6 50.8 527.1 65.7 527.1 84.2 Z M 506 86.4 C 506 68.9 501.7 57.5 493.1 57.5 C 485.6 57.5 481.9 66.5 481.9 82.6 C 481.9 100.1 486.2 111.6 494.8 111.6 C 502.3 111.6 506 102.5 506 86.4 Z M 597.8 103.7 L 606.6 105.3 L 606.6 111 L 581.4 118.3 L 581.4 104.2 C 581.4 104.2 567.3 117.05 567.3 117.1 C 565.8 117.8 563.8 118.3 561.5 118.3 C 553.2 118.3 541.6 112.5 541.6 95.7 C 541.63 95.73 541.6 61.3 541.6 61.3 L 532.1 58.2 L 532.1 52.1 L 560.2 52.1 C 560.2 52.1 560.23 91.51 560.2 91.5 C 560.2 99.6 564.3 103.2 569 103.2 C 572.6 103.2 576.5 101.1 579.2 97.5 C 579.2 97.46 579.2 61.3 579.2 61.3 L 569.8 58.2 L 569.8 52.1 L 597.8 52.1 L 597.8 103.7 Z M 610.9 111 L 620.5 107.4 L 620.5 64.9 L 611.2 60.5 L 611.2 56.4 L 636.9 50.8 L 636.9 67.1 C 636.9 67.1 651.74 51.46 651.7 51.5 C 656.2 51.5 662.2 52.5 665.7 54.4 C 665.7 54.4 660.9 72.9 660.9 72.9 C 657.7 70.8 654.1 69.7 650.5 69.7 C 646.3 69.7 642.3 71.1 639.1 73.4 C 639.09 73.41 639.1 108.9 639.1 108.9 L 648.6 110.5 L 648.6 116.8 L 610.9 116.8 L 610.9 111 Z " stroke="none" fill="#000"/>  </g></svg>
